X:83
T:New Dance,A. JBs.083
T:Come Ashore Jacky Tar,aka. JBs.083
S:Jas.Blackshaw MS, 1837, N.Shropshire
A:North Shropshire
Z:T. Weatherall 2006
M:4/4
L:1/8
Q:1/2=90
R:.Hornpipe
K:G
d/c/|BGBG bgbg|edcB cedc|B2 AG FGAB|c2A2A2dc|
BGBG bgbg|edcB cedc|B2 AG FGAc|B2G>G G2z:|
|:d|gfga gbag|f2d2d2e2|fefg fagf|e2c2c2dc|BGBG bgbg|
edcB cedc|B2AG FGAc|B2G>G G2z:|
|:B/c/|dBGB dBGB|dcBA G2AB|cAFA cAFA|cBAG F2dc|
BGBG bgbg|edcB cedc|B2AG FGAc|B2G>GG2z:|

